X: 30796
T: Other Clog, The
R: polka
M: 2/4
K: Amajor
cA A>B|cA Ac|BE GA|Bc d/c/B/d/|
cA A>B|cA Ac|BE G>A|BA AA/:|
ce df|ea c2|e>d BG|fe c>=c|
ce dd/f/|ea c2|e>d BG|A2 AA/:|

